static/chevron-right.svg

<svg width="15" height="17" viewBox="0 0 15 17" fill="none" xmlns="http://www.w3.org/2000/svg">
<g clip-path="url(#clip0)">
<path d="M14.8944 8.23825L7.0377 0.108097C6.97107 0.0391505 6.88033 0 6.78558 0H0.357156C0.212851 0 0.0819392 0.0900809 0.0270297 0.22832C-0.0278797 0.36656 0.00258833 0.524895 0.104037 0.631259L7.709 8.50017L0.104037 16.3687C0.0019187 16.4744 -0.0288842 16.6334 0.0270297 16.7717C0.0826088 16.9099 0.212851 17 0.357156 17H6.78558C6.88067 17 6.9714 16.9608 7.03837 16.8923L14.8954 8.76175C15.0347 8.61659 15.0347 8.38307 14.8944 8.23825Z" fill="#01829E"/>
</g>
<defs>
<clipPath id="clip0">
<rect width="15" height="17" fill="white"/>
</clipPath>
</defs>
</svg>

<svg width="15" height="17" fill="none" xmlns="http://www.w3.org/2000/svg"><g clip-path="url(#prefix__clip0)"><path d="M14.894 8.238L7.038.108A.35.35 0 006.786 0H.357a.357.357 0 00-.33.228.381.381 0 00.077.403l7.605 7.87-7.605 7.868a.378.378 0 00-.077.403.358.358 0 00.33.228h6.429c.095 0 .185-.04.252-.108l7.857-8.13a.38.38 0 000-.524z" fill="#01829E"/></g><defs><clipPath id="prefix__clip0"><path fill="#fff" d="M0 0h15v17H0z"/></clipPath></defs></svg>
